dist/img/main/globe.svg

<svg min-width="48" min-height="48" viewBox="0 0 48 48" fill="none" xmlns="http://www.w3.org/2000/svg">
<g clip-path="url(#clip0_68_8566)">
<path d="M22.1254 9.65723H23.595V36.3242H22.1254V9.65723Z" fill="url(#paint0_linear_68_8566)"/>
<path d="M24.6212 11.4072C16.7769 10.2651 10.1353 16.9067 11.2774 24.751C12.016 29.8236 16.0285 33.8361 21.1011 34.5747C28.9454 35.7168 35.587 29.0752 34.4449 21.2309C33.7064 16.1583 29.6938 12.1458 24.6212 11.4072Z" fill="url(#paint1_linear_68_8566)"/>
<path d="M22.8606 11.2783C22.4635 11.2783 22.0711 11.2983 21.6843 11.3369C21.7881 11.3473 21.8913 11.3593 21.9943 11.3724C19.8501 11.8394 18.0166 14.0162 16.9716 17.0827C13.9583 18.0981 11.799 19.8775 11.2768 21.9658C11.1902 22.3117 11.1483 22.6543 11.1483 22.9905C11.1483 25.5022 13.4805 27.6962 16.9526 28.8794C17.9681 31.8927 19.7475 34.0521 21.8358 34.5743C21.8869 34.5871 21.9379 34.5986 21.9888 34.6095C21.8877 34.6222 21.7862 34.634 21.6842 34.6441C22.0711 34.6827 22.4635 34.7027 22.8605 34.7027C29.329 34.7027 34.5727 29.459 34.5727 22.9906C34.5727 16.5221 29.329 11.2783 22.8606 11.2783ZM13.9544 25.5534C13.4865 25.1235 12.95 24.4937 12.7257 23.7253H16.0548C16.0668 24.0644 16.0872 24.4063 16.1164 24.7506C16.186 25.5718 16.3058 26.3649 16.4699 27.1211C15.4677 26.6891 14.6142 26.1595 13.9544 25.5534ZM16.0554 22.2557H12.7205C13.0028 21.2381 13.9164 20.237 15.3028 19.4298C15.6689 19.2167 16.0644 19.0209 16.4822 18.8424C16.2458 19.9139 16.0985 21.0604 16.0554 22.2557ZM30.4183 26.5512C30.0522 26.7643 29.6567 26.9601 29.2389 27.1387C29.4752 26.0671 29.6226 24.9206 29.6657 23.7253H32.1967C32.1964 23.7309 32.196 23.7365 32.1957 23.7421C32.1231 24.8883 31.4782 25.9218 30.4908 26.5085C30.4668 26.5228 30.4426 26.537 30.4183 26.5512ZM32.1956 22.2391C32.196 22.2446 32.1963 22.2502 32.1967 22.2557H29.6663C29.6543 21.9166 29.6339 21.5747 29.6047 21.2305C29.5351 20.4092 29.4153 19.6161 29.2512 18.8599C29.6856 19.0472 30.2562 19.4036 30.7633 19.7472C31.5981 20.3131 32.1319 21.2326 32.1956 22.2391ZM31.2002 18.2032C30.4784 17.7771 29.6612 17.4058 28.7684 17.1016C28.1547 15.2805 27.2617 13.7722 26.1904 12.7477C28.3946 13.9732 30.1623 15.8887 31.2002 18.2032ZM24.4965 28.2704C24.1958 28.2959 23.8952 28.3135 23.5954 28.3249V23.7253H28.1948C28.1422 25.0773 27.9453 26.3932 27.6084 27.6133C27.5985 27.6491 27.5878 27.6839 27.5777 27.7194C26.6103 27.991 25.5696 28.1794 24.4965 28.2704ZM26.9912 29.3811C26.5591 30.3834 26.0296 31.2369 25.4235 31.8966C24.9935 32.3645 24.3637 32.901 23.5954 33.1253V29.7962C23.9344 29.7842 24.2764 29.7638 24.6206 29.7346C25.4418 29.6651 26.2349 29.5452 26.9912 29.3811ZM23.5954 22.2557V17.6563C24.9473 17.7089 26.2633 17.9057 27.4834 18.2427C27.5191 18.2526 27.554 18.2632 27.5895 18.2733C27.861 19.2407 28.0494 20.2814 28.1404 21.3546C28.1659 21.6553 28.1836 21.9558 28.195 22.2557H23.5954ZM23.5954 16.1854V12.8504C24.613 13.1327 25.6141 14.0463 26.4212 15.4328C26.6344 15.7989 26.8301 16.1943 27.0087 16.6121C25.9371 16.3758 24.7906 16.2285 23.5954 16.1854ZM20.2976 14.0844C20.7275 13.6165 21.3574 13.08 22.1258 12.8557V16.1848C21.7867 16.1968 21.4447 16.2172 21.1005 16.2464C20.2793 16.316 19.4862 16.4359 18.7299 16.5999C19.162 15.5977 19.6915 14.7441 20.2976 14.0844ZM18.1127 18.3677C18.1226 18.3319 18.1333 18.2971 18.1434 18.2616C19.1108 17.99 20.1515 17.8016 21.2247 17.7106C21.5253 17.6851 21.8259 17.6674 22.1258 17.6561V22.2557H17.5263C17.5789 20.9037 17.7757 19.5878 18.1127 18.3677ZM18.1316 27.7077C17.8601 26.7403 17.6717 25.6996 17.5807 24.6264C17.5552 24.3257 17.5375 24.0252 17.5261 23.7253H22.1258V28.3247C20.7738 28.2721 19.4578 28.0753 18.2377 27.7383C18.202 27.7284 18.1671 27.7178 18.1316 27.7077ZM19.2999 30.5482C19.0867 30.1821 18.891 29.7867 18.7124 29.3689C19.784 29.6052 20.9306 29.7525 22.1258 29.7956V33.1306C21.1081 32.8483 20.1071 31.9347 19.2999 30.5482ZM26.1403 33.2609C27.2229 32.2389 28.1264 30.7268 28.7494 28.8984C29.6453 28.5964 30.465 28.2265 31.1893 27.8015C30.1421 30.1228 28.3603 32.041 26.1403 33.2609Z" fill="#084D5B"/>
<path d="M22.7521 9H22.1259C21.72 9 21.3911 9.32896 21.3911 9.7348C21.3911 10.1406 21.72 10.4696 22.1259 10.4696H22.8607C24.5516 10.4696 26.1912 10.8004 27.734 11.4529C29.2248 12.0835 30.564 12.9865 31.7143 14.1369C32.8647 15.2873 33.7677 16.6265 34.3983 18.1173C35.0508 19.66 35.3816 21.2996 35.3816 22.9906C35.3816 24.6816 35.0508 26.3212 34.3983 27.8639C33.7677 29.3547 32.8647 30.6939 31.7143 31.8443C30.5639 32.9947 29.2248 33.8977 27.734 34.5282C26.1912 35.1807 24.5516 35.5116 22.8607 35.5116H22.1259C21.72 35.5116 21.3911 35.8405 21.3911 36.2464C21.3911 36.6522 21.72 36.9812 22.1259 36.9812H22.8607C30.5702 36.9812 36.8233 30.7453 36.8511 23.0423C36.8791 15.319 30.4754 9 22.7521 9Z" fill="#094F5E"/>
<path d="M29.0726 38.9999H16.6481C15.6836 38.9999 14.9018 38.2181 14.9018 37.2536C14.9018 36.2892 15.6836 35.5073 16.6481 35.5073H29.0726C30.0371 35.5073 30.8189 36.2892 30.8189 37.2536C30.8189 38.2181 30.0371 38.9999 29.0726 38.9999Z" fill="url(#paint2_linear_68_8566)"/>
<path d="M29.0725 35.5073H26.8283C27.7928 35.5073 28.5746 36.2892 28.5746 37.2536C28.5746 38.2181 27.7928 38.9999 26.8283 38.9999H29.0725C30.037 38.9999 30.8188 38.2181 30.8188 37.2536C30.8188 36.2892 30.037 35.5073 29.0725 35.5073Z" fill="url(#paint3_linear_68_8566)"/>
</g>
<circle cx="13" cy="14" r="3" fill="#FEB137"/>
<defs>
<linearGradient id="paint0_linear_68_8566" x1="20.0746" y1="22.9907" x2="25.2103" y2="22.9907" gradientUnits="userSpaceOnUse">
<stop offset="1" stop-color="#094F5E"/>
</linearGradient>
<linearGradient id="paint1_linear_68_8566" x1="10.5978" y1="22.991" x2="36.7651" y2="22.991" gradientUnits="userSpaceOnUse">
<stop stop-color="#94CFFF" stop-opacity="0.69"/>
</linearGradient>
<linearGradient id="paint2_linear_68_8566" x1="14.9518" y1="37.2536" x2="31.7436" y2="37.2536" gradientUnits="userSpaceOnUse">
<stop stop-color="#1F6574"/>
</linearGradient>
<linearGradient id="paint3_linear_68_8566" x1="11.5152" y1="37.2536" x2="26.5672" y2="37.2536" gradientUnits="userSpaceOnUse">
<stop stop-color="#094F5E"/>
</linearGradient>
<clipPath id="clip0_68_8566">
<rect width="30" height="30" fill="white" transform="translate(9 9)"/>
</clipPath>
</defs>
</svg>

<svg viewBox="0 0 48 48" fill="none" xmlns="http://www.w3.org/2000/svg"><g clip-path="url(#clip0_68_8566)"><path d="M22.125 9.657h1.47v26.667h-1.47V9.657z" fill="url(#paint0_linear_68_8566)"/><path d="M24.621 11.407a11.723 11.723 0 00-13.344 13.344 11.646 11.646 0 009.824 9.824A11.723 11.723 0 0034.445 21.23a11.646 11.646 0 00-9.824-9.824z" fill="url(#paint1_linear_68_8566)"/><path d="M22.86 11.278c-.396 0-.789.02-1.176.059.104.01.207.022.31.035-2.144.467-3.977 2.644-5.022 5.71-3.014 1.016-5.173 2.796-5.695 4.884a4.211 4.211 0 00-.129 1.024c0 2.512 2.332 4.706 5.805 5.89 1.015 3.013 2.794 5.172 4.883 5.694.05.013.102.025.153.035-.101.013-.203.025-.305.035.387.039.78.059 1.176.059 6.469 0 11.713-5.244 11.713-11.712 0-6.469-5.244-11.713-11.712-11.713zm-8.906 14.275c-.468-.43-1.004-1.06-1.228-1.828h3.329c.012.34.032.681.061 1.026.07.82.19 1.614.354 2.37-1.002-.432-1.856-.961-2.516-1.568zm2.101-3.297H12.72c.283-1.018 1.196-2.019 2.583-2.826a10.72 10.72 0 011.18-.588 19.07 19.07 0 00-.428 3.414zm14.363 4.295c-.366.213-.761.41-1.18.588a19.08 19.08 0 00.428-3.414h2.53v.017a3.484 3.484 0 01-1.778 2.81zm1.778-4.312v.017h-2.53c-.012-.34-.032-.681-.061-1.026-.07-.82-.19-1.614-.354-2.37.435.187 1.005.544 1.512.887a3.267 3.267 0 011.433 2.492zm-.996-4.036a13.105 13.105 0 00-2.432-1.101c-.613-1.822-1.506-3.33-2.578-4.354a11.76 11.76 0 015.01 5.455zM24.497 28.27c-.301.026-.602.044-.902.055v-4.6h4.6a17.185 17.185 0 01-.587 3.888l-.03.106c-.968.272-2.008.46-3.081.551zm2.494 1.111c-.432 1.002-.961 1.856-1.567 2.516-.43.468-1.06 1.004-1.829 1.228v-3.329a20.86 20.86 0 001.026-.061c.82-.07 1.614-.19 2.37-.354zm-3.396-7.125v-4.6a17.18 17.18 0 013.888.587l.107.03c.271.968.46 2.008.55 3.082.026.3.044.6.055.9h-4.6zm0-6.07V12.85c1.018.283 2.02 1.196 2.826 2.583.213.366.41.761.588 1.18a19.08 19.08 0 00-3.414-.428zm-3.297-2.102c.43-.467 1.06-1.004 1.828-1.228v3.329c-.34.012-.681.032-1.026.061-.82.07-1.614.19-2.37.354.432-1.002.962-1.856 1.568-2.516zm-2.185 4.284l.03-.106a16.66 16.66 0 013.082-.551c.3-.026.6-.044.9-.055v4.6h-4.599a17.2 17.2 0 01.587-3.888zm.019 9.34a16.67 16.67 0 01-.551-3.082 19.37 19.37 0 01-.055-.9h4.6v4.599a17.18 17.18 0 01-3.888-.587l-.106-.03zm1.168 2.84a10.718 10.718 0 01-.588-1.18c1.072.237 2.219.385 3.414.428v3.335c-1.018-.283-2.019-1.196-2.826-2.583zm6.84 2.713c1.083-1.022 1.986-2.534 2.61-4.363a13.09 13.09 0 002.44-1.096 11.759 11.759 0 01-5.05 5.459z" fill="#084D5B"/><path d="M22.752 9h-.626a.735.735 0 100 1.47h.735a12.48 12.48 0 018.854 3.667 12.482 12.482 0 013.667 8.854 12.482 12.482 0 01-3.667 8.854 12.48 12.48 0 01-8.854 3.667h-.735a.735.735 0 100 1.47h.735c7.71 0 13.962-6.237 13.99-13.94C36.88 15.32 30.475 9 22.752 9z" fill="#094F5E"/><path d="M29.073 39H16.648a1.746 1.746 0 110-3.493h12.425a1.746 1.746 0 010 3.493z" fill="url(#paint2_linear_68_8566)"/><path d="M29.073 35.507h-2.245a1.746 1.746 0 010 3.493h2.245a1.746 1.746 0 100-3.493z" fill="url(#paint3_linear_68_8566)"/></g><circle cx="13" cy="14" r="3" fill="#FEB137"/><defs><linearGradient id="paint0_linear_68_8566" x1="20.075" y1="22.991" x2="25.21" y2="22.991" gradientUnits="userSpaceOnUse"><stop offset="1" stop-color="#094F5E"/></linearGradient><linearGradient id="paint1_linear_68_8566" x1="10.598" y1="22.991" x2="36.765" y2="22.991" gradientUnits="userSpaceOnUse"><stop stop-color="#94CFFF" stop-opacity=".69"/></linearGradient><linearGradient id="paint2_linear_68_8566" x1="14.952" y1="37.254" x2="31.744" y2="37.254" gradientUnits="userSpaceOnUse"><stop stop-color="#1F6574"/></linearGradient><linearGradient id="paint3_linear_68_8566" x1="11.515" y1="37.254" x2="26.567" y2="37.254" gradientUnits="userSpaceOnUse"><stop stop-color="#094F5E"/></linearGradient><clipPath id="clip0_68_8566"><path fill="#fff" transform="translate(9 9)" d="M0 0h30v30H0z"/></clipPath></defs></svg>
